content/blogs/regnskap/hva-er-csv-fil/csv-systemintegrasjon.svg

<svg xmlns="http://www.w3.org/2000/svg" width="800" height="600"><defs><linearGradient id="a" x1="0%" x2="100%" y1="0%" y2="100%"><stop offset="0%" style="stop-color:#f8f9fa;stop-opacity:1"/><stop offset="100%" style="stop-color:#e9ecef;stop-opacity:1"/></linearGradient><linearGradient id="b" x1="0%" x2="100%" y1="0%" y2="100%"><stop offset="0%" style="stop-color:#28a745;stop-opacity:1"/><stop offset="100%" style="stop-color:#20c997;stop-opacity:1"/></linearGradient><linearGradient id="d" x1="0%" x2="100%" y1="0%" y2="100%"><stop offset="0%" style="stop-color:#007bff;stop-opacity:1"/><stop offset="100%" style="stop-color:#0056b3;stop-opacity:1"/></linearGradient></defs><path fill="url(#a)" d="M0 0h800v600H0z"/><text x="400" y="40" fill="#2c3e50" font-family="Arial, sans-serif" font-size="24" font-weight="bold" text-anchor="middle">
    CSV Integrasjon med Forretningssystemer
  </text><circle cx="400" cy="300" r="80" fill="url(#b)" stroke="#20c997" stroke-width="4"/><text x="400" y="290" fill="#fff" font-family="Arial, sans-serif" font-size="20" font-weight="bold" text-anchor="middle">📄 CSV</text><text x="400" y="310" fill="#fff" font-family="Arial, sans-serif" font-size="14" text-anchor="middle">Datautveksling</text><text x="400" y="325" fill="#fff" font-family="Arial, sans-serif" font-size="12" text-anchor="middle">Format</text><rect width="140" height="100" x="50" y="120" fill="#ffc107" stroke="#e0a800" stroke-width="3" rx="15"/><text x="120" y="145" fill="#212529" font-family="Arial, sans-serif" font-size="16" font-weight="bold" text-anchor="middle">🏦 Banksystem</text><text x="120" y="165" fill="#495057" font-family="Arial, sans-serif" font-size="11" text-anchor="middle">• Kontoutskrifter</text><text x="120" y="180" fill="#495057" font-family="Arial, sans-serif" font-size="11" text-anchor="middle">• Transaksjoner</text><text x="120" y="195" fill="#495057" font-family="Arial, sans-serif" font-size="11" text-anchor="middle">• Betalingsdata</text><text x="120" y="210" fill="#495057" font-family="Arial, sans-serif" font-size="11" text-anchor="middle">• Valutakurser</text><path fill="none" stroke="#28a745" stroke-width="3" marker-end="url(#c)" d="M190 170q60 30 130 80"/><text x="240" y="190" fill="#28a745" font-family="Arial, sans-serif" font-size="10" font-weight="bold">Export</text><rect width="140" height="100" x="610" y="120" fill="url(#d)" stroke="#0056b3" stroke-width="3" rx="15"/><text x="680" y="145" fill="#fff" font-family="Arial, sans-serif" font-size="16" font-weight="bold" text-anchor="middle">💼 Regnskap</text><text x="680" y="165" fill="#fff" font-family="Arial, sans-serif" font-size="11" text-anchor="middle">• Hovedbok</text><text x="680" y="180" fill="#fff" font-family="Arial, sans-serif" font-size="11" text-anchor="middle">• Rapporter</text><text x="680" y="195" fill="#fff" font-family="Arial, sans-serif" font-size="11" text-anchor="middle">• Balanse</text><text x="680" y="210" fill="#fff" font-family="Arial, sans-serif" font-size="11" text-anchor="middle">• Resultat</text><path fill="none" stroke="#007bff" stroke-width="3" marker-end="url(#e)" d="M480 250q70-50 130-80"/><text x="560" y="190" fill="#007bff" font-family="Arial, sans-serif" font-size="10" font-weight="bold">Import</text><rect width="140" height="100" x="50" y="380" fill="#6f42c1" stroke="#5a2d91" stroke-width="3" rx="15"/><text x="120" y="405" fill="#fff" font-family="Arial, sans-serif" font-size="16" font-weight="bold" text-anchor="middle">👥 CRM</text><text x="120" y="425" fill="#fff" font-family="Arial, sans-serif" font-size="11" text-anchor="middle">• Kundedata</text><text x="120" y="440" fill="#fff" font-family="Arial, sans-serif" font-size="11" text-anchor="middle">• Salgshistorikk</text><text x="120" y="455" fill="#fff" font-family="Arial, sans-serif" font-size="11" text-anchor="middle">• Kontaktinfo</text><text x="120" y="470" fill="#fff" font-family="Arial, sans-serif" font-size="11" text-anchor="middle">• Avtaler</text><path fill="none" stroke="#6f42c1" stroke-width="3" marker-end="url(#f)" d="M190 430q60-30 130-80"/><text x="240" y="410" fill="#6f42c1" font-family="Arial, sans-serif" font-size="10" font-weight="bold">Export</text><rect width="140" height="100" x="610" y="380" fill="#dc3545" stroke="#c82333" stroke-width="3" rx="15"/><text x="680" y="405" fill="#fff" font-family="Arial, sans-serif" font-size="16" font-weight="bold" text-anchor="middle">💰 Lønn</text><text x="680" y="425" fill="#fff" font-family="Arial, sans-serif" font-size="11" text-anchor="middle">• Lønnsdata</text><text x="680" y="440" fill="#fff" font-family="Arial, sans-serif" font-size="11" text-anchor="middle">• Feriepenger</text><text x="680" y="455" fill="#fff" font-family="Arial, sans-serif" font-size="11" text-anchor="middle">• Skatt/avgifter</text><text x="680" y="470" fill="#fff" font-family="Arial, sans-serif" font-size="11" text-anchor="middle">• A-melding</text><path fill="none" stroke="#dc3545" stroke-width="3" marker-end="url(#g)" d="M480 350q70 50 130 80"/><text x="560" y="410" fill="#dc3545" font-family="Arial, sans-serif" font-size="10" font-weight="bold">Import</text><rect width="140" height="80" x="200" y="80" fill="#fd7e14" stroke="#e55a00" stroke-width="3" rx="15"/><text x="270" y="105" fill="#fff" font-family="Arial, sans-serif" font-size="16" font-weight="bold" text-anchor="middle">📦 Lager</text><text x="270" y="125" fill="#fff" font-family="Arial, sans-serif" font-size="11" text-anchor="middle">• Beholdning</text><text x="270" y="140" fill="#fff" font-family="Arial, sans-serif" font-size="11" text-anchor="middle">• Varebevegelser</text><text x="270" y="155" fill="#fff" font-family="Arial, sans-serif" font-size="11" text-anchor="middle">• Kostpriser</text><path fill="none" stroke="#fd7e14" stroke-width="3" marker-end="url(#h)" d="m320 160 60 60"/><text x="340" y="180" fill="#fd7e14" font-family="Arial, sans-serif" font-size="10" font-weight="bold">Export</text><rect width="140" height="80" x="460" y="80" fill="#20c997" stroke="#17a2b8" stroke-width="3" rx="15"/><text x="530" y="105" fill="#fff" font-family="Arial, sans-serif" font-size="16" font-weight="bold" text-anchor="middle">🧾 Faktura</text><text x="530" y="125" fill="#fff" font-family="Arial, sans-serif" font-size="11" text-anchor="middle">• Salgsfakturaer</text><text x="530" y="140" fill="#fff" font-family="Arial, sans-serif" font-size="11" text-anchor="middle">• Kreditnotaer</text><text x="530" y="155" fill="#fff" font-family="Arial, sans-serif" font-size="11" text-anchor="middle">• Kundefordringer</text><path fill="none" stroke="#20c997" stroke-width="3" marker-end="url(#i)" d="m480 160-60 60"/><text x="460" y="180" fill="#20c997" font-family="Arial, sans-serif" font-size="10" font-weight="bold">Export</text><rect width="140" height="80" x="200" y="480" fill="#198754" stroke="#146c43" stroke-width="3" rx="15"/><text x="270" y="505" fill="#fff" font-family="Arial, sans-serif" font-size="16" font-weight="bold" text-anchor="middle">📊 Excel</text><text x="270" y="525" fill="#fff" font-family="Arial, sans-serif" font-size="11" text-anchor="middle">• Analyse</text><text x="270" y="540" fill="#fff" font-family="Arial, sans-serif" font-size="11" text-anchor="middle">• Rapporter</text><text x="270" y="555" fill="#fff" font-family="Arial, sans-serif" font-size="11" text-anchor="middle">• Grafer</text><path fill="none" stroke="#198754" stroke-width="3" marker-end="url(#j)" d="M380 380q-20 40-60 100"/><text x="340" y="440" fill="#198754" font-family="Arial, sans-serif" font-size="10" font-weight="bold">Export</text><rect width="140" height="80" x="460" y="480" fill="#495057" stroke="#343a40" stroke-width="3" rx="15"/><text x="530" y="505" fill="#fff" font-family="Arial, sans-serif" font-size="16" font-weight="bold" text-anchor="middle">🏢 ERP</text><text x="530" y="525" fill="#fff" font-family="Arial, sans-serif" font-size="11" text-anchor="middle">• Integrert system</text><text x="530" y="540" fill="#fff" font-family="Arial, sans-serif" font-size="11" text-anchor="middle">• Alle moduler</text><text x="530" y="555" fill="#fff" font-family="Arial, sans-serif" font-size="11" text-anchor="middle">• Sanntidsdata</text><path fill="none" stroke="#495057" stroke-width="3" marker-end="url(#k)" d="M420 380q20 40 60 100"/><text x="460" y="440" fill="#495057" font-family="Arial, sans-serif" font-size="10" font-weight="bold">Import</text><rect width="700" height="15" x="50" y="580" fill="#e9ecef" rx="3"/><text x="60" y="590" fill="#495057" font-family="Arial, sans-serif" font-size="12" font-weight="bold">Integrasjonsfordeler:</text><text x="180" y="590" fill="#495057" font-family="Arial, sans-serif" font-size="10">• Automatisert dataflyt</text><text x="300" y="590" fill="#495057" font-family="Arial, sans-serif" font-size="10">• Redusert manuelt arbeid</text><text x="450" y="590" fill="#495057" font-family="Arial, sans-serif" font-size="10">• Økt datakvalitet</text><text x="570" y="590" fill="#495057" font-family="Arial, sans-serif" font-size="10">• Sanntidsoppdateringer</text><defs><marker id="c" markerHeight="7" markerWidth="10" orient="auto" refX="9" refY="3.5"><path fill="#28a745" d="m0 0 10 3.5L0 7z"/></marker><marker id="e" markerHeight="7" markerWidth="10" orient="auto" refX="9" refY="3.5"><path fill="#007bff" d="m0 0 10 3.5L0 7z"/></marker><marker id="g" markerHeight="7" markerWidth="10" orient="auto" refX="9" refY="3.5"><path fill="#dc3545" d="m0 0 10 3.5L0 7z"/></marker><marker id="f" markerHeight="7" markerWidth="10" orient="auto" refX="9" refY="3.5"><path fill="#6f42c1" d="m0 0 10 3.5L0 7z"/></marker><marker id="h" markerHeight="7" markerWidth="10" orient="auto" refX="9" refY="3.5"><path fill="#fd7e14" d="m0 0 10 3.5L0 7z"/></marker><marker id="i" markerHeight="7" markerWidth="10" orient="auto" refX="9" refY="3.5"><path fill="#20c997" d="m0 0 10 3.5L0 7z"/></marker><marker id="j" markerHeight="7" markerWidth="10" orient="auto" refX="9" refY="3.5"><path fill="#198754" d="m0 0 10 3.5L0 7z"/></marker><marker id="k" markerHeight="7" markerWidth="10" orient="auto" refX="9" refY="3.5"><path fill="#495057" d="m0 0 10 3.5L0 7z"/></marker></defs></svg>

<svg width="800" height="600" xmlns="http://www.w3.org/2000/svg">
  <defs>
    <linearGradient id="bgGradient" x1="0%" y1="0%" x2="100%" y2="100%">
      <stop offset="0%" style="stop-color:#f8f9fa;stop-opacity:1" />
      <stop offset="100%" style="stop-color:#e9ecef;stop-opacity:1" />
    </linearGradient>
    <linearGradient id="csvGradient" x1="0%" y1="0%" x2="100%" y2="100%">
      <stop offset="0%" style="stop-color:#28a745;stop-opacity:1" />
      <stop offset="100%" style="stop-color:#20c997;stop-opacity:1" />
    </linearGradient>
    <linearGradient id="systemGradient" x1="0%" y1="0%" x2="100%" y2="100%">
      <stop offset="0%" style="stop-color:#007bff;stop-opacity:1" />
      <stop offset="100%" style="stop-color:#0056b3;stop-opacity:1" />
    </linearGradient>
  </defs>
  

  <rect width="800" height="600" fill="url(#bgGradient)"/>
  

  <text x="400" y="40" text-anchor="middle" font-family="Arial, sans-serif" font-size="24" font-weight="bold" fill="#2c3e50">
    CSV Integrasjon med Forretningssystemer
  </text>
  

  <circle cx="400" cy="300" r="80" fill="url(#csvGradient)" stroke="#20c997" stroke-width="4"/>
  <text x="400" y="290" text-anchor="middle" font-family="Arial, sans-serif" font-size="20" font-weight="bold" fill="white">📄 CSV</text>
  <text x="400" y="310" text-anchor="middle" font-family="Arial, sans-serif" font-size="14" fill="white">Datautveksling</text>
  <text x="400" y="325" text-anchor="middle" font-family="Arial, sans-serif" font-size="12" fill="white">Format</text>
  

  <g id="bankingSystem">
    <rect x="50" y="120" width="140" height="100" rx="15" fill="#ffc107" stroke="#e0a800" stroke-width="3"/>
    <text x="120" y="145" text-anchor="middle" font-family="Arial, sans-serif" font-size="16" font-weight="bold" fill="#212529">🏦 Banksystem</text>
    <text x="120" y="165" text-anchor="middle" font-family="Arial, sans-serif" font-size="11" fill="#495057">• Kontoutskrifter</text>
    <text x="120" y="180" text-anchor="middle" font-family="Arial, sans-serif" font-size="11" fill="#495057">• Transaksjoner</text>
    <text x="120" y="195" text-anchor="middle" font-family="Arial, sans-serif" font-size="11" fill="#495057">• Betalingsdata</text>
    <text x="120" y="210" text-anchor="middle" font-family="Arial, sans-serif" font-size="11" fill="#495057">• Valutakurser</text>
    

    <path d="M 190 170 Q 250 200 320 250" stroke="#28a745" stroke-width="3" fill="none" marker-end="url(#greenArrow)"/>
    <text x="240" y="190" font-family="Arial, sans-serif" font-size="10" fill="#28a745" font-weight="bold">Export</text>
  </g>
  

  <g id="accountingSystem">
    <rect x="610" y="120" width="140" height="100" rx="15" fill="url(#systemGradient)" stroke="#0056b3" stroke-width="3"/>
    <text x="680" y="145" text-anchor="middle" font-family="Arial, sans-serif" font-size="16" font-weight="bold" fill="white">💼 Regnskap</text>
    <text x="680" y="165" text-anchor="middle" font-family="Arial, sans-serif" font-size="11" fill="white">• Hovedbok</text>
    <text x="680" y="180" text-anchor="middle" font-family="Arial, sans-serif" font-size="11" fill="white">• Rapporter</text>
    <text x="680" y="195" text-anchor="middle" font-family="Arial, sans-serif" font-size="11" fill="white">• Balanse</text>
    <text x="680" y="210" text-anchor="middle" font-family="Arial, sans-serif" font-size="11" fill="white">• Resultat</text>
    

    <path d="M 480 250 Q 550 200 610 170" stroke="#007bff" stroke-width="3" fill="none" marker-end="url(#blueArrow)"/>
    <text x="560" y="190" font-family="Arial, sans-serif" font-size="10" fill="#007bff" font-weight="bold">Import</text>
  </g>
  

  <g id="crmSystem">
    <rect x="50" y="380" width="140" height="100" rx="15" fill="#6f42c1" stroke="#5a2d91" stroke-width="3"/>
    <text x="120" y="405" text-anchor="middle" font-family="Arial, sans-serif" font-size="16" font-weight="bold" fill="white">👥 CRM</text>
    <text x="120" y="425" text-anchor="middle" font-family="Arial, sans-serif" font-size="11" fill="white">• Kundedata</text>
    <text x="120" y="440" text-anchor="middle" font-family="Arial, sans-serif" font-size="11" fill="white">• Salgshistorikk</text>
    <text x="120" y="455" text-anchor="middle" font-family="Arial, sans-serif" font-size="11" fill="white">• Kontaktinfo</text>
    <text x="120" y="470" text-anchor="middle" font-family="Arial, sans-serif" font-size="11" fill="white">• Avtaler</text>
    

    <path d="M 190 430 Q 250 400 320 350" stroke="#6f42c1" stroke-width="3" fill="none" marker-end="url(#purpleArrow)"/>
    <text x="240" y="410" font-family="Arial, sans-serif" font-size="10" fill="#6f42c1" font-weight="bold">Export</text>
  </g>
  

  <g id="payrollSystem">
    <rect x="610" y="380" width="140" height="100" rx="15" fill="#dc3545" stroke="#c82333" stroke-width="3"/>
    <text x="680" y="405" text-anchor="middle" font-family="Arial, sans-serif" font-size="16" font-weight="bold" fill="white">💰 Lønn</text>
    <text x="680" y="425" text-anchor="middle" font-family="Arial, sans-serif" font-size="11" fill="white">• Lønnsdata</text>
    <text x="680" y="440" text-anchor="middle" font-family="Arial, sans-serif" font-size="11" fill="white">• Feriepenger</text>
    <text x="680" y="455" text-anchor="middle" font-family="Arial, sans-serif" font-size="11" fill="white">• Skatt/avgifter</text>
    <text x="680" y="470" text-anchor="middle" font-family="Arial, sans-serif" font-size="11" fill="white">• A-melding</text>
    

    <path d="M 480 350 Q 550 400 610 430" stroke="#dc3545" stroke-width="3" fill="none" marker-end="url(#redArrow)"/>
    <text x="560" y="410" font-family="Arial, sans-serif" font-size="10" fill="#dc3545" font-weight="bold">Import</text>
  </g>
  

  <g id="inventorySystem">
    <rect x="200" y="80" width="140" height="80" rx="15" fill="#fd7e14" stroke="#e55a00" stroke-width="3"/>
    <text x="270" y="105" text-anchor="middle" font-family="Arial, sans-serif" font-size="16" font-weight="bold" fill="white">📦 Lager</text>
    <text x="270" y="125" text-anchor="middle" font-family="Arial, sans-serif" font-size="11" fill="white">• Beholdning</text>
    <text x="270" y="140" text-anchor="middle" font-family="Arial, sans-serif" font-size="11" fill="white">• Varebevegelser</text>
    <text x="270" y="155" text-anchor="middle" font-family="Arial, sans-serif" font-size="11" fill="white">• Kostpriser</text>
    

    <path d="M 320 160 Q 360 200 380 220" stroke="#fd7e14" stroke-width="3" fill="none" marker-end="url(#orangeArrow)"/>
    <text x="340" y="180" font-family="Arial, sans-serif" font-size="10" fill="#fd7e14" font-weight="bold">Export</text>
  </g>
  

  <g id="invoiceSystem">
    <rect x="460" y="80" width="140" height="80" rx="15" fill="#20c997" stroke="#17a2b8" stroke-width="3"/>
    <text x="530" y="105" text-anchor="middle" font-family="Arial, sans-serif" font-size="16" font-weight="bold" fill="white">🧾 Faktura</text>
    <text x="530" y="125" text-anchor="middle" font-family="Arial, sans-serif" font-size="11" fill="white">• Salgsfakturaer</text>
    <text x="530" y="140" text-anchor="middle" font-family="Arial, sans-serif" font-size="11" fill="white">• Kreditnotaer</text>
    <text x="530" y="155" text-anchor="middle" font-family="Arial, sans-serif" font-size="11" fill="white">• Kundefordringer</text>
    

    <path d="M 480 160 Q 440 200 420 220" stroke="#20c997" stroke-width="3" fill="none" marker-end="url(#tealArrow)"/>
    <text x="460" y="180" font-family="Arial, sans-serif" font-size="10" fill="#20c997" font-weight="bold">Export</text>
  </g>
  

  <g id="excelSystem">
    <rect x="200" y="480" width="140" height="80" rx="15" fill="#198754" stroke="#146c43" stroke-width="3"/>
    <text x="270" y="505" text-anchor="middle" font-family="Arial, sans-serif" font-size="16" font-weight="bold" fill="white">📊 Excel</text>
    <text x="270" y="525" text-anchor="middle" font-family="Arial, sans-serif" font-size="11" fill="white">• Analyse</text>
    <text x="270" y="540" text-anchor="middle" font-family="Arial, sans-serif" font-size="11" fill="white">• Rapporter</text>
    <text x="270" y="555" text-anchor="middle" font-family="Arial, sans-serif" font-size="11" fill="white">• Grafer</text>
    

    <path d="M 380 380 Q 360 420 320 480" stroke="#198754" stroke-width="3" fill="none" marker-end="url(#darkGreenArrow)"/>
    <text x="340" y="440" font-family="Arial, sans-serif" font-size="10" fill="#198754" font-weight="bold">Export</text>
  </g>
  

  <g id="erpSystem">
    <rect x="460" y="480" width="140" height="80" rx="15" fill="#495057" stroke="#343a40" stroke-width="3"/>
    <text x="530" y="505" text-anchor="middle" font-family="Arial, sans-serif" font-size="16" font-weight="bold" fill="white">🏢 ERP</text>
    <text x="530" y="525" text-anchor="middle" font-family="Arial, sans-serif" font-size="11" fill="white">• Integrert system</text>
    <text x="530" y="540" text-anchor="middle" font-family="Arial, sans-serif" font-size="11" fill="white">• Alle moduler</text>
    <text x="530" y="555" text-anchor="middle" font-family="Arial, sans-serif" font-size="11" fill="white">• Sanntidsdata</text>
    

    <path d="M 420 380 Q 440 420 480 480" stroke="#495057" stroke-width="3" fill="none" marker-end="url(#grayArrow)"/>
    <text x="460" y="440" font-family="Arial, sans-serif" font-size="10" fill="#495057" font-weight="bold">Import</text>
  </g>
  

  <rect x="50" y="580" width="700" height="15" fill="#e9ecef" rx="3"/>
  <text x="60" y="590" font-family="Arial, sans-serif" font-size="12" font-weight="bold" fill="#495057">Integrasjonsfordeler:</text>
  <text x="180" y="590" font-family="Arial, sans-serif" font-size="10" fill="#495057">• Automatisert dataflyt</text>
  <text x="300" y="590" font-family="Arial, sans-serif" font-size="10" fill="#495057">• Redusert manuelt arbeid</text>
  <text x="450" y="590" font-family="Arial, sans-serif" font-size="10" fill="#495057">• Økt datakvalitet</text>
  <text x="570" y="590" font-family="Arial, sans-serif" font-size="10" fill="#495057">• Sanntidsoppdateringer</text>
  

  <defs>
    <marker id="greenArrow" markerWidth="10" markerHeight="7" refX="9" refY="3.5" orient="auto">
      <polygon points="0 0, 10 3.5, 0 7" fill="#28a745"/>
    </marker>
    <marker id="blueArrow" markerWidth="10" markerHeight="7" refX="9" refY="3.5" orient="auto">
      <polygon points="0 0, 10 3.5, 0 7" fill="#007bff"/>
    </marker>
    <marker id="redArrow" markerWidth="10" markerHeight="7" refX="9" refY="3.5" orient="auto">
      <polygon points="0 0, 10 3.5, 0 7" fill="#dc3545"/>
    </marker>
    <marker id="purpleArrow" markerWidth="10" markerHeight="7" refX="9" refY="3.5" orient="auto">
      <polygon points="0 0, 10 3.5, 0 7" fill="#6f42c1"/>
    </marker>
    <marker id="orangeArrow" markerWidth="10" markerHeight="7" refX="9" refY="3.5" orient="auto">
      <polygon points="0 0, 10 3.5, 0 7" fill="#fd7e14"/>
    </marker>
    <marker id="tealArrow" markerWidth="10" markerHeight="7" refX="9" refY="3.5" orient="auto">
      <polygon points="0 0, 10 3.5, 0 7" fill="#20c997"/>
    </marker>
    <marker id="darkGreenArrow" markerWidth="10" markerHeight="7" refX="9" refY="3.5" orient="auto">
      <polygon points="0 0, 10 3.5, 0 7" fill="#198754"/>
    </marker>
    <marker id="grayArrow" markerWidth="10" markerHeight="7" refX="9" refY="3.5" orient="auto">
      <polygon points="0 0, 10 3.5, 0 7" fill="#495057"/>
    </marker>
  </defs>
</svg>
